**kern
*part1
*staff1
*clefC1
*k[b-e-]
*M2/4
1%0r
=2
1%0r
=3
1%0r
=4
1%0r
=5
1%0r
=6
1%0r
=7
1%0r
=8
1%0r
=9
1%0r
=10
1%0r
=11
1%0r
=12
1%0r
=13
1%0r
=14
1%0r
=15
16b-yL
16ddJ
4ff
8ee-y
=16
16ddL
16gg
16ff
16ee-y
16ddJ
16cc
16b-y
16a
=17
16b-yL
16fJ
8f
8b-y
8b-y
=18
16ccL
16aJ
8b-y
16ee-yL
16ccJ
8dd
=19
8qdd
4cc
=-
*-
